X:349
T: ES GIENG EIN KNAB SPAZIEREN
N: E0197B
O: Europa, Mitteleuropa, Italien, Tirol, Meran
R: erzaehlendes Volks - Lied, Tod, Toten - Sage, Grabesstimme
M: 2/4
L: 1/16
K: F
FA | c2c2c2AF | d2c2z2
Ac | B2B2A2cA | G4z2
GA | B2B2B2AG | ABc2z2
Bd | c2cBA2G2 | F4z2

@@@ Tune index: 3999
